X: 3
T: The Killavil
R: reel
M: 4/4
L: 1/8
K: Dmaj
D2AD BDAD|D2AD BDAD|E2BE dEBE|BABc dBAF |D2AD BDAD|D2AD BDAD|GFEF GABc|1 dfed BAFE:|2 dfed BAFA||d2fd adfd|g2fg edBc|d2fd adfd|g2fg e2fe|d2fd adfd|g2fg edBc|dBBA Bcde|1 fdec dBAB:|2 fdec dBAF||


Tune 1723	Setting 1723

